X: 19236
T: It's A Bar
R: reel
M: 4/4
K: Amajor
CF FC G/A/E DC/B,/|CF FA B/c/A GF/E/|CF FC G/A/E DC/B,/|
[1CF F/G/A B/A/B/c/ d/c/B/A/:|2 CF F/G/A B/A/B/c/ d/c/d/e/||
cB/c/ eE FE/F/ A/B3/2|cB/c/ eE3/2 F/F/D/ d2|cB/c/ eE FE/F/ A/B3/2|
[1cB/c/ e/c/d3/2 cA/ AB/A/:|2 cB/c/ e/c/d3/2 cE/ F2||

